svg/business/chart_line_fill.svg

<?xml version="1.0" encoding="UTF-8"?>
<svg width="24px" height="24px" viewBox="0 0 24 24" version="1.1" xmlns="http://www.w3.org/2000/svg" xmlns:xlink="http://www.w3.org/1999/xlink">
    <title>chart_line_fill</title>
    <g id="页面-1" stroke="none" stroke-width="1" fill="none" fill-rule="evenodd">
        <g id="Business" transform="translate(-240.000000, -48.000000)" fill-rule="nonzero">
            <g id="chart_line_fill" transform="translate(240.000000, 48.000000)">
                <path d="M24,0 L24,24 L0,24 L0,0 L24,0 Z M12.5934901,23.257841 L12.5819402,23.2595131 L12.5108777,23.2950439 L12.4918791,23.2987469 L12.4918791,23.2987469 L12.4767152,23.2950439 L12.4056548,23.2595131 C12.3958229,23.2563662 12.3870493,23.2590235 12.3821421,23.2649074 L12.3780323,23.275831 L12.360941,23.7031097 L12.3658947,23.7234994 L12.3769048,23.7357139 L12.4804777,23.8096931 L12.4953491,23.8136134 L12.4953491,23.8136134 L12.5071152,23.8096931 L12.6106902,23.7357139 L12.6232938,23.7196733 L12.6232938,23.7196733 L12.6266527,23.7031097 L12.609561,23.275831 C12.6075724,23.2657013 12.6010112,23.2592993 12.5934901,23.257841 L12.5934901,23.257841 Z M12.8583906,23.1452862 L12.8445485,23.1473072 L12.6598443,23.2396597 L12.6498822,23.2499052 L12.6498822,23.2499052 L12.6471943,23.2611114 L12.6650943,23.6906389 L12.6699349,23.7034178 L12.6699349,23.7034178 L12.678386,23.7104931 L12.8793402,23.8032389 C12.8914285,23.8068999 12.9022333,23.8029875 12.9078286,23.7952264 L12.9118235,23.7811639 L12.8776777,23.1665331 C12.8752882,23.1545897 12.8674102,23.1470016 12.8583906,23.1452862 L12.8583906,23.1452862 Z M12.1430473,23.1473072 C12.1332178,23.1423925 12.1221763,23.1452606 12.1156365,23.1525954 L12.1099173,23.1665331 L12.0757714,23.7811639 C12.0751323,23.7926639 12.0828099,23.8018602 12.0926481,23.8045676 L12.108256,23.8032389 L12.3092106,23.7104931 L12.3186497,23.7024347 L12.3186497,23.7024347 L12.3225043,23.6906389 L12.340401,23.2611114 L12.337245,23.2485176 L12.337245,23.2485176 L12.3277531,23.2396597 L12.1430473,23.1473072 Z" id="MingCute" fill-rule="nonzero"></path>
                <path d="M4,3.5 C4.77969882,3.5 5.420449,4.09488554 5.49313345,4.85553954 L5.5,5 L5.5,17.5 L20,17.5 C20.8284,17.5 21.5,18.1716 21.5,19 C21.5,19.7796706 20.9050879,20.4204457 20.1444558,20.4931332 L20,20.5 L4,20.5 C3.22030118,20.5 2.579551,19.9050879 2.50686655,19.1444558 L2.5,19 L2.5,5 C2.5,4.17157 3.17157,3.5 4,3.5 Z M20.1934,6.31802 C21.5387,6.31802 22.2123,7.94453 21.2611,8.89575 L15.692,14.4648 C15.0672,15.0897 14.0541,15.0897 13.4293,14.4648 L11.0252,12.0607 L8.55035,14.5356 C7.96458,15.1214 7.01483,15.1214 6.42903,14.5356 C5.84324,13.9498 5.84322,13.0001 6.429,12.4143 L9.89375,8.94941 C10.5186,8.32455 11.5317,8.32454 12.1565,8.94939 L14.5607,11.3536 L16.7424,9.17183 C16.2377,8.93031 15.8891,8.41487 15.8891,7.81802 C15.8891,6.98959 16.5607,6.31802 17.3891,6.31802 L20.1934,6.31802 Z" id="形状" fill="#09244B"></path>
            </g>
        </g>
    </g>
</svg>

<svg xmlns="http://www.w3.org/2000/svg" width="24" height="24"><g fill="none" fill-rule="nonzero"><path d="M24 0v24H0V0zM12.593 23.258l-.011.002-.071.035-.02.004-.014-.004-.071-.035c-.01-.004-.019-.001-.024.005l-.004.01-.017.428.005.02.01.013.104.074.015.004.012-.004.104-.074.012-.016.004-.017-.017-.427c-.002-.01-.009-.017-.017-.018m.265-.113-.013.002-.185.093-.01.01-.003.011.018.43.005.012.008.007.201.093c.012.004.023 0 .029-.008l.004-.014-.034-.614c-.003-.012-.01-.02-.02-.022m-.715.002a.023.023 0 0 0-.027.006l-.006.014-.034.614c0 .012.007.02.017.024l.015-.002.201-.093.01-.008.004-.011.017-.43-.003-.012-.01-.01z"/><path fill="#09244B" d="M4 3.5a1.5 1.5 0 0 1 1.493 1.356L5.5 5v12.5H20a1.5 1.5 0 0 1 .144 2.993L20 20.5H4a1.5 1.5 0 0 1-1.493-1.356L2.5 19V5A1.5 1.5 0 0 1 4 3.5m16.193 2.818c1.346 0 2.02 1.627 1.068 2.578l-5.569 5.569a1.6 1.6 0 0 1-2.263 0l-2.404-2.404-2.475 2.475a1.5 1.5 0 1 1-2.121-2.122L9.894 8.95a1.6 1.6 0 0 1 2.262 0l2.405 2.405 2.181-2.182a1.5 1.5 0 0 1 .647-2.854z"/></g></svg>
